Obsidian/status/16s/gnome-netstatus-tx.svg

<svg xmlns="http://www.w3.org/2000/svg" width="16" height="16" version="1.1">
 <defs>
  <style id="current-color-scheme" type="text/css">
   .ColorScheme-Text { color:#d3dae3; } .ColorScheme-Highlight { color:#5294e2; }
  </style>
 </defs>
 <path style="fill:currentColor" class="ColorScheme-Text" d="M 10,9.01 15.5,4.51 10,0.01 C 10,0.01 10,1.34 10,2.01 H 7 V 7.01 H 10 Z"/>
 <path style="opacity:0.3;fill:currentColor" class="ColorScheme-Text" d="M 6,6.01 0.5,10.51 6,15.01 C 6,15.01 6,13.68 6,13.01 H 9 V 8.01 H 6 Z"/>
</svg>

<svg height="16" width="16" xmlns="http://www.w3.org/2000/svg"><g fill="#d3dae3"><path d="m10 9.01 5.5-4.5-5.5-4.5v2h-3v5h3z"/><path d="m6 6.01-5.5 4.5 5.5 4.5s0-1.33 0-2h3v-5h-3z" opacity=".3"/></g></svg>
